pieces/kosal/rw.svg

<svg xmlns="http://www.w3.org/2000/svg" viewBox="0 0 81 81"><style>.st0{fill:#fff}.st1{fill:#cfcecf}</style><path class="st0" d="M58.7 59.4l-3.2-27.3 8.6-8.2V12.8H53v8.1h-6.7v-8.1H34.7v8.1H28v-8.1H16.9v11.1l8.6 8.2-3.2 27.3h-6.6V71h49.6V59.4z"/><path class="st1" d="M58.5 59.7l-4.2-27.2h2.2l7.6-8.6V12.8l-5.8 4.6v8.2H32l11.6 6.9h3.2c0 12.1-2.8 21.3-11.7 27.2h13.3L54.5 70h9.9V59.7h-5.9z"/><path d="M59.1 58.1l-2.6-24.8 8.7-9V11.5H51.8v8.2h-4.2v-8.2H33.5v8.2h-4.2v-8.2H15.6v12.9l8.7 9-2.6 24.8h-7.3v14.1h51.8V72h.2V58.1h-7.3zM36 22.2V14h9v8.2h9.2V14h8.5v9.3L54.4 32H26.5l-8.4-8.6V14h8.6v8.2H36zm18 12.2l2.6 23.7H24.3l2.6-23.7H54zm2.9 26.2H64v9.1H17v-9.1h39.9z"/></svg>

<svg width="81" height="81" viewBox="0 0 81 81" fill="none" xmlns="http://www.w3.org/2000/svg">
<path d="M58.7 59.4L55.5 32.1L64.1 23.9V12.8H53V20.9H46.3V12.8H34.7V20.9H28V12.8H16.9V23.9L25.5 32.1L22.3 59.4H15.7V71H65.3V59.4H58.7Z" fill="white"/>
<path d="M58.5 59.7L54.3 32.5H56.5L64.1 23.9V12.8L58.3 17.4V25.6H32L43.6 32.5H46.8C46.8 44.6 44 53.8 35.1 59.7H48.4L54.5 70H64.4V59.7H58.5V59.7Z" fill="#CFCECF"/>
<path d="M59.1 58.1L56.5 33.3L65.2 24.3V11.5H51.8V19.7H47.6V11.5H33.5V19.7H29.3V11.5H15.6V24.4L24.3 33.4L21.7 58.2H14.4V72.3H66.2V72H66.4V58.1H59.1V58.1ZM36 22.2V14H45V22.2H54.2V14H62.7V23.3L54.4 32H26.5L18.1 23.4V14H26.7V22.2H36ZM54 34.4L56.6 58.1H24.3L26.9 34.4H54V34.4ZM56.9 60.6H64V69.7H17V60.6H56.9V60.6Z" fill="black"/>
</svg>
